packages/elvis-assets-icons/icons/svg/src/quotation-color.svg

<svg width="24" height="24" viewBox="0 0 24 24" fill="none" xmlns="http://www.w3.org/2000/svg">
<g clip-path="url(#clip0)">
<path d="M17.8754 14.5819L14.2946 18.153C13.8712 18.5755 13.8712 19.2591 14.2946 19.6816C14.7181 20.1041 15.4032 20.1041 15.8266 19.6816L22.4363 13.0883C22.438 13.0866 22.438 13.0866 22.4397 13.085C24.5201 11.0092 24.5201 7.63268 22.4397 5.55689C21.3995 4.51899 20.0342 4.00005 18.6672 4.00005C17.3003 4.00005 15.935 4.519 14.8948 5.55689C12.8143 7.63268 12.8143 11.0092 14.8948 13.085C15.7333 13.9216 16.7835 14.4206 17.8754 14.5819Z" fill="#29D305"/>
<path d="M1.56026 13.0865C2.39876 13.9232 3.44898 14.4205 4.53921 14.5835L0.96013 18.1546C0.536709 18.5771 0.536709 19.2607 0.96013 19.6831C1.38355 20.1056 2.0687 20.1056 2.49212 19.6831L9.10016 13.0898C9.10183 13.0882 9.10183 13.0882 9.10349 13.0865C11.1839 11.0107 11.1839 7.63424 9.10349 5.55845C8.06328 4.52055 6.69799 4.0016 5.33104 4.0016C3.96409 4.0016 2.59881 4.52055 1.55859 5.55845C-0.520177 7.63424 -0.520178 11.0107 1.56026 13.0865Z" fill="#29D305"/>
</g>
<defs>
<clipPath id="clip0">
<path d="M24 24L1.90735e-06 24L-1.90798e-07 1.90798e-07L24 -1.90735e-06L24 24Z" fill="white"/>
</clipPath>
</defs>
</svg>

<svg width="24" height="24" fill="none" xmlns="http://www.w3.org/2000/svg"><g clip-path="url(#clip0)" fill="#29D305"><path d="M17.875 14.582l-3.58 3.571a1.079 1.079 0 000 1.529 1.084 1.084 0 001.532 0l6.61-6.594.003-.003A5.32 5.32 0 0018.667 4a5.32 5.32 0 00-.792 10.582zM1.56 13.086a5.314 5.314 0 002.98 1.498l-3.58 3.57a1.078 1.078 0 000 1.53 1.084 1.084 0 001.532 0L9.1 13.09l.003-.004a5.32 5.32 0 00-3.772-9.084 5.322 5.322 0 00-3.77 9.085z"/></g><defs><clipPath id="clip0"><path d="M24 24H0V0h24v24z" fill="#fff"/></clipPath></defs></svg>
